Hatter-kde/status/24/night-light-symbolic.svg

<?xml version="1.0" encoding="UTF-8" standalone="no"?>
<svg
   xmlns:dc="http://purl.org/dc/elements/1.1/"
   xmlns:cc="http://creativecommons.org/ns#"
   xmlns:rdf="http://www.w3.org/1999/02/22-rdf-syntax-ns#"
   xmlns:svg="http://www.w3.org/2000/svg"
   xmlns="http://www.w3.org/2000/svg"
   xmlns:sodipodi="http://sodipodi.sourceforge.net/DTD/sodipodi-0.dtd"
   xmlns:inkscape="http://www.inkscape.org/namespaces/inkscape"
   id="svg4031"
   height="24"
   width="24"
   version="1.1"
   sodipodi:docname="night-light-symbolic.svg"
   inkscape:version="0.92+devel (unknown)">
  <sodipodi:namedview
     pagecolor="#f2f2f2"
     bordercolor="#f2f2f2"
     inkscape:document-rotation="0"
     borderopacity="1"
     objecttolerance="10"
     gridtolerance="10"
     guidetolerance="10"
     inkscape:pageopacity="0"
     inkscape:pageshadow="2"
     inkscape:window-width="1600"
     inkscape:window-height="837"
     id="namedview6"
     showgrid="false"
     inkscape:zoom="26.136363667"
     inkscape:cx="12"
     inkscape:cy="12"
     inkscape:window-x="0"
     inkscape:window-y="30"
     inkscape:window-maximized="1"
     inkscape:current-layer="svg4031">
    <inkscape:grid
       type="xygrid"
       id="grid8" />
  </sodipodi:namedview>
  <defs
     id="defs4033" />
  <metadata
     id="metadata4036">
    <rdf:RDF>
      <cc:Work
         rdf:about="">
        <dc:format>image/svg+xml</dc:format>
        <dc:type
           rdf:resource="http://purl.org/dc/dcmitype/StillImage" />
        <dc:title />
      </cc:Work>
    </rdf:RDF>
  </metadata>
  <path
     style="color:#000000;display:inline;overflow:visible;visibility:visible;opacity:1;vector-effect:none;fill:#f2f2f2;fill-opacity:1;fill-rule:nonzero;stroke:none;stroke-width:1;stroke-linecap:butt;stroke-linejoin:miter;stroke-miterlimit:4;stroke-dasharray:none;stroke-dashoffset:0;stroke-opacity:1;marker:none;enable-background:accumulate"
     d="M 11.25 3 A 0.25 0.25 0 0 0 11 3.25 L 11 4.75 C 11 4.889 11.112 5 11.25 5 L 11.75 5 A 0.25 0.25 0 0 0 12 4.75 L 12 3.25 A 0.25 0.25 0 0 0 11.75 3 L 11.25 3 z M 5.1328125 5.53125 A 0.25 0.25 0 0 0 5.1074219 5.5332031 A 0.25 0.25 0 0 0 4.9589844 5.6054688 L 4.6054688 5.9589844 C 4.5071807 6.0572724 4.5078878 6.2149192 4.6054688 6.3125 L 5.3636360156 7.3730469 A 0.25 0.25 0 0 0 6.0195312 7.3730469 L 6.3730469 7.0195312 A 0.25 0.25 0 0 0 6.3730469 6.3636360156 L 5.3125 5.6054688 A 0.25 0.25 0 0 0 5.1328125 5.53125 z M 17.861328 5.53125 A 0.25 0.25 0 0 0 17.835938 5.5332031 A 0.25 0.25 0 0 0 17.6875 5.6054688 L 16.626953 6.3636360156 C 16.528663 6.7643036 16.529373 6.9219506 16.626953 7.0195312 L 16.980469 7.3730469 A 0.25 0.25 0 0 0 17.333984 7.3730469 L 18.394531 6.3125 A 0.25 0.25 0 0 0 18.394531 5.9589844 L 18.041016 5.6054688 A 0.25 0.25 0 0 0 17.861328 5.53125 z M 11.5 7 C 8.465286 7 6 9.4652894 6 12.5 C 6 15.534712 8.465286 18 11.5 18 C 14.534708 18 17.000006 15.534712 17 12.5 C 17 9.4652894 14.534708 7 11.5 7 z M 11.400391 8.0625 A 4.4539089 4.4539089 0 0 1 11.402344 8.0625 A 4.4539089 4.4539089 0 0 1 11.486328 8.0625 L 11.492188 8.0625 A 3.7115908 3.7115908 0 0 0 10.001953 11.029297 A 3.7115908 3.7115908 0 0 0 13.712891 14.744141 A 3.7115908 3.7115908 0 0 0 15.599609 14.222656 A 4.4539089 4.4539089 0 1 1 11.400391 8.0625 z M 2.25 12 A 0.25 0.25 0 0 0 2 12.25 L 2 12.75 C 2 12.889 2.112 13 2.25 13 L 3.75 13 A 0.25 0.25 0 0 0 4 12.75 L 4 12.25 A 0.25 0.25 0 0 0 3.75 12 L 2.25 12 z M 19.25 12 A 0.25 0.25 0 0 0 19 12.25 L 19 12.75 C 19 12.889 19.112 13 19.25 13 L 20.75 13 A 0.25 0.25 0 0 0 21 12.75 L 21 12.25 A 0.25 0.25 0 0 0 20.75 12 L 19.25 12 z M 5.8398438 17.552734 A 0.25 0.25 0 0 0 5.3636360156 17.626953 L 4.6054688 18.6875 C 4.5071807 18.78579 4.5078878 18.943435 4.6054688 19.041016 L 4.9589844 19.394531 A 0.25 0.25 0 0 0 5.3125 19.394531 L 6.3730469 18.333984 A 0.25 0.25 0 0 0 6.3730469 17.980469 L 6.0195312 17.626953 A 0.25 0.25 0 0 0 5.8398438 17.552734 z M 17.152344 17.552734 A 0.25 0.25 0 0 0 16.980469 17.626953 L 16.626953 17.980469 C 16.528663 18.078759 16.529373 18.236403 16.626953 18.333984 L 17.6875 19.394531 A 0.25 0.25 0 0 0 18.041016 19.394531 L 18.394531 19.041016 A 0.25 0.25 0 0 0 18.394531 18.6875 L 17.333984 17.626953 A 0.25 0.25 0 0 0 17.152344 17.552734 z M 11.25 20 A 0.25 0.25 0 0 0 11 20.25 L 11 21.75 C 11 21.889 11.112 22 11.25 22 L 11.75 22 A 0.25 0.25 0 0 0 12 21.75 L 12 20.25 A 0.25 0.25 0 0 0 11.75 20 L 11.25 20 z "
     id="path28" />
</svg>

<?xml version="1.0" encoding="UTF-8"?>
<svg id="svg4031" width="24" height="24" version="1.1" xmlns="http://www.w3.org/2000/svg" xmlns:cc="http://creativecommons.org/ns#" xmlns:dc="http://purl.org/dc/elements/1.1/" xmlns:rdf="http://www.w3.org/1999/02/22-rdf-syntax-ns#">
 <metadata id="metadata4036">
  <rdf:RDF>
   <cc:Work rdf:about="">
    <dc:format>image/svg+xml</dc:format>
    <dc:type rdf:resource="http://purl.org/dc/dcmitype/StillImage"/>
    <dc:title/>
   </cc:Work>
  </rdf:RDF>
 </metadata>
 <path id="path28" d="m11.25 3a0.25 0.25 0 0 0-0.25 0.25v1.5c0 0.139 0.112 0.25 0.25 0.25h0.5a0.25 0.25 0 0 0 0.25-0.25v-1.5a0.25 0.25 0 0 0-0.25-0.25h-0.5zm-6.1172 2.5312a0.25 0.25 0 0 0-0.025391 0.0019531 0.25 0.25 0 0 0-0.14844 0.072266l-0.35352 0.35352c-0.098288 0.098288-0.097581 0.25593 0 0.35352l0.75817 1.0605a0.25 0.25 0 0 0 0.6559 0l0.35352-0.35352a0.25 0.25 0 0 0 0-0.6559l-1.0605-0.75817a0.25 0.25 0 0 0-0.17969-0.074219zm12.729 0a0.25 0.25 0 0 0-0.02539 0.0019531 0.25 0.25 0 0 0-0.14844 0.072266l-1.0605 0.75817c-0.09829 0.40067-0.09758 0.55831 0 0.6559l0.35352 0.35352a0.25 0.25 0 0 0 0.35352 0l1.0605-1.0605a0.25 0.25 0 0 0 0-0.35352l-0.35352-0.35352a0.25 0.25 0 0 0-0.17969-0.074219zm-6.3613 1.4688c-3.0347 0-5.5 2.4653-5.5 5.5 0 3.0347 2.4653 5.5 5.5 5.5 3.0347 0 5.5-2.4653 5.5-5.5 0-3.0347-2.4653-5.5-5.5-5.5zm-0.099609 1.0625a4.4539 4.4539 0 0 1 0.001953 0 4.4539 4.4539 0 0 1 0.083984 0h0.00586a3.7116 3.7116 0 0 0-1.4902 2.9668 3.7116 3.7116 0 0 0 3.7109 3.7148 3.7116 3.7116 0 0 0 1.8867-0.52148 4.4539 4.4539 0 1 1-4.1992-6.1602zm-9.1504 3.9375a0.25 0.25 0 0 0-0.25 0.25v0.5c0 0.139 0.112 0.25 0.25 0.25h1.5a0.25 0.25 0 0 0 0.25-0.25v-0.5a0.25 0.25 0 0 0-0.25-0.25h-1.5zm17 0a0.25 0.25 0 0 0-0.25 0.25v0.5c0 0.139 0.112 0.25 0.25 0.25h1.5a0.25 0.25 0 0 0 0.25-0.25v-0.5a0.25 0.25 0 0 0-0.25-0.25h-1.5zm-13.41 5.5527a0.25 0.25 0 0 0-0.47621 0.074219l-0.75817 1.0605c-0.098288 0.09829-0.097581 0.25594 0 0.35352l0.35352 0.35352a0.25 0.25 0 0 0 0.35352 0l1.0605-1.0605a0.25 0.25 0 0 0 0-0.35352l-0.35352-0.35352a0.25 0.25 0 0 0-0.17969-0.074219zm11.313 0a0.25 0.25 0 0 0-0.17188 0.074219l-0.35352 0.35352c-0.09829 0.09829-0.09758 0.25593 0 0.35352l1.0605 1.0605a0.25 0.25 0 0 0 0.35352 0l0.35352-0.35352a0.25 0.25 0 0 0 0-0.35352l-1.0605-1.0605a0.25 0.25 0 0 0-0.18164-0.074219zm-5.9023 2.4473a0.25 0.25 0 0 0-0.25 0.25v1.5c0 0.139 0.112 0.25 0.25 0.25h0.5a0.25 0.25 0 0 0 0.25-0.25v-1.5a0.25 0.25 0 0 0-0.25-0.25h-0.5z" color="#000000" fill="#fff"/>
</svg>
